azure-patterns/svg-cloud-services-blue.svg

<svg xmlns="http://www.w3.org/2000/svg" viewBox="0 0 60 51">
                                
                            
    <path d="M52.0068,17.61816 C52.2408,16.5232597 52.356,15.4800396 52.356,14.441627 C52.356,6.47806005 45.8784,0 37.914,0 C32.3568,0 27.354,3.15129377 24.942,8.09577226 C22.9992,6.16076731 20.3712,5.06346326 17.6052,5.06346326 C11.8896,5.06346326 7.2396,9.72069567 7.2396,15.4439836 C7.2396,16.2203893 7.326,17.0040062 7.5012,17.8092567 C2.7936,19.7298393 0,23.7140265 0,28.5599519 C0,35.0944997 5.3316,40.2132488 12.1356,40.2132488 L12.9108,40.2132488 C13.0428,46.1841212 17.9268,51 23.9076,51 C27.9336,51 31.5792,48.8258236 33.5028,45.3740633 C34.95,46.6300137 36.8004,47.3307018 38.7348,47.3307018 C42.8388,47.3307018 46.2336,44.2166659 46.7148,40.2132488 L47.868,40.2132488 C54.672,40.2132488 60,35.0944997 60,28.5599519 C60,23.5133148 56.9472,19.3608663 52.0068,17.61816" fill="#0076D2"></path>
    <path d="M47.1303483,23.3031716 L48,21.2436567 L47.7483209,21.0262438 L45.8495025,19.3767413 L45.8589552,17.7095149 L48,15.7953358 L47.1575249,13.724005 L46.8278607,13.7464552 L44.3169776,13.9260572 L43.1448383,12.7373756 L43.3043532,9.86847015 L41.2460199,9 L41.028607,9.25049751 L39.3779229,11.1516791 L37.7095149,11.1398632 L35.7941542,9.00118159 L33.724005,9.84129353 L33.7476368,10.1733209 L33.9248756,12.684204 L32.7385572,13.8539801 L29.8696517,13.6944652 L29,15.7539801 L29.2516791,15.971393 L31.1516791,17.6220771 L31.1410448,19.2904851 L29.0023632,21.2058458 L29.8424751,23.275995 L30.1745025,23.2511816 L32.6830224,23.0751244 L33.8551617,24.2626244 L33.6956468,27.1291667 L35.7551617,27.9988184 L35.9725746,27.7471393 L37.6220771,25.8471393 L39.2904851,25.8589552 L41.2058458,28 L43.275995,27.1587065 L43.2523632,26.8254975 L43.0751244,24.315796 L44.263806,23.1436567 L47.1303483,23.3031716 Z M36.721704,22.7135572 C34.3927861,21.7316542 33.3021766,19.0482587 34.2852612,16.721704 C35.2695274,14.3916045 37.9505597,13.3021766 40.278296,14.2840796 C42.6060323,15.2671642 43.6966418,17.9505597 42.7147388,20.278296 C41.7316542,22.6060323 39.0506219,23.6966418 36.721704,22.7135572 Z" fill="#FFFFFF"></path>
    <path d="M34,34.0985441 L34,31.8208399 L33.679923,31.7173625 L31.2432465,30.9196246 L30.5946694,29.3506197 L31.8460983,26.7059319 L30.2384935,25.0972206 L29.9364659,25.2500301 L27.6514048,26.4075322 L26.0811022,25.7565877 L25.0968052,23.0024064 L22.8213706,23 L22.7166837,23.3236674 L21.9188978,25.7577909 L20.3497984,26.406329 L17.7049516,25.1561786 L16.0961434,26.7648899 L16.2489622,27.0668993 L17.4065339,29.3530261 L16.7567535,30.9196246 L14.0012033,31.9050656 L14,34.1803634 L14.3212803,34.2862471 L16.7579568,35.0815786 L17.4065339,36.65299 L16.155105,39.2952713 L17.7627098,40.9075923 L18.0647374,40.7535796 L20.352205,39.593671 L21.9188978,40.2446156 L22.9043981,42.9987968 L25.1798327,43 L25.2845196,42.6799422 L26.0823055,40.2434123 L27.6526081,39.5948743 L30.2950484,40.8462279 L31.9062632,39.2387198 L31.7534444,38.9367104 L30.5934661,36.6517868 L31.2456531,35.0815786 L34,34.0985441 Z M23.9969918,37.660089 C21.4243427,37.6588858 19.3414355,35.5712911 19.3414355,32.9987968 C19.3438421,30.4250993 21.4303592,28.3423174 24.0042115,28.3435206 C26.5780639,28.3447239 28.6621744,30.4311154 28.6597678,33.0048129 C28.6585645,35.5773072 26.5708441,37.6612923 23.9969918,37.660089 Z" fill="#FFFFFF"></path>
    <path d="M41.7636496,19.1663146 C41.1204078,20.692586 39.3601449,21.4073917 37.833788,20.7629925 C36.3074312,20.1185934 35.5925855,18.3596223 36.2370207,16.833351 C36.881456,15.3094663 38.6405255,14.5922739 40.1668823,15.2366731 C41.6920457,15.8810722 42.4068915,17.6400433 41.7636496,19.1663146" fill="#B8D432"></path>
    <path d="M26.9999992,33.0011933 C26.9988054,34.6587108 25.6534019,36.0011925 23.9976124,35.9999992 C22.3406292,35.9988059 20.998807,34.6551308 21.0000008,32.9976134 C21.0011946,31.3412892 22.3454043,29.9988075 24,30.0000008 C25.658177,30.0011941 27.001193,31.3448692 26.9999992,33.0011933" fill="#B8D432"></path>
</svg>

<svg xmlns="http://www.w3.org/2000/svg" viewBox="0 0 60 51"><path d="M52.007 17.618c.234-1.095.349-2.138.349-3.176C52.356 6.478 45.878 0 37.914 0a14.4 14.4 0 0 0-12.972 8.096 10.385 10.385 0 0 0-7.337-3.033C11.89 5.063 7.24 9.721 7.24 15.444c0 .776.086 1.56.261 2.365C2.794 19.73 0 23.714 0 28.56c0 6.534 5.332 11.653 12.136 11.653h.775C13.043 46.184 17.927 51 23.908 51c4.026 0 7.671-2.174 9.595-5.626a7.974 7.974 0 0 0 5.232 1.957c4.104 0 7.499-3.114 7.98-7.118h1.153C54.672 40.213 60 35.094 60 28.56c0-5.047-3.053-9.2-7.993-10.942" fill="#0076D2"/><path d="M47.13 23.303l.87-2.06-.252-.217-1.898-1.65.009-1.666L48 15.795l-.842-2.071-.33.022-2.511.18-1.172-1.189.16-2.869L41.245 9l-.217.25-1.651 1.902-1.668-.012L35.794 9l-2.07.84.024.332.177 2.511-1.186 1.17-2.87-.16-.869 2.06.252.217 1.9 1.651-.011 1.668-2.139 1.916.84 2.07.333-.025 2.508-.176 1.172 1.188-.16 2.866 2.06.87.218-.252 1.65-1.9 1.667.012L41.206 28l2.07-.841-.024-.334-.177-2.51 1.189-1.171 2.866.16zm-10.408-.59a4.572 4.572 0 0 1-2.437-5.991 4.574 4.574 0 1 1 8.43 3.556 4.573 4.573 0 0 1-5.993 2.436zM34 34.099V31.82l-.32-.104-2.437-.797-.648-1.57 1.251-2.644-1.608-1.609-.302.153-2.285 1.158-1.57-.651-.984-2.755L22.82 23l-.104.324-.798 2.434-1.57.648-2.644-1.25-1.609 1.609.153.302 1.158 2.286-.65 1.567-2.756.985L14 34.18l.321.106 2.437.796.649 1.571-1.252 2.642 1.608 1.613.302-.154 2.287-1.16 1.567.65.985 2.755L25.18 43l.105-.32.797-2.437 1.57-.648 2.643 1.251 1.611-1.607-.153-.302-1.16-2.285.653-1.57L34 34.099zM23.997 37.66a4.66 4.66 0 1 1 .008-9.319 4.66 4.66 0 0 1-.008 9.32z" fill="#FFF"/><path d="M41.764 19.166a2.999 2.999 0 1 1-5.526-2.331 2.999 2.999 0 0 1 5.526 2.331M27 33.001A3 3 0 1 1 20.999 33 3 3 0 0 1 27 33" fill="#B8D432"/></svg>
